!!!COM: Palestrina, Giovanni Perluigi da
!!!OPR: L'homme arme (1570)
!!!OTL: Agnus I
**kern	**kern	**kern	**kern	**kern
*Ibass	*Itenor	*Itenor	*Icalto	*Icant
!Bassus	!Tenor 2	!Tenor 1	!Altus	!Cantus
*clefF4	*clefGv2	*clefGv2	*clefG2	*clefG2
*k[]	*k[]	*k[]	*k[]	*k[]
*G:mix	*G:mix	*G:mix	*G:mix	*G:mix
*M4/2	*M4/2	*M4/2	*M4/2	*M4/2
=1	=1	=1	=1	=1
0r	0G	0r	0r	0r
=2	=2	=2	=2	=2
0r	1G	0r	0r	1r
.	[1c	.	.	[1g
=3	=3	=3	=3	=3
0r	1c]	0r	0r	1g]
.	1B	.	.	1g
=4	=4	=4	=4	=4
0r	2.A	0r	0r	0cc
.	4G	.	.	.
.	4A	.	.	.
.	4B	.	.	.
.	4c	.	.	.
.	4d	.	.	.
=5	=5	=5	=5	=5
0r	4e	0r	1r	1b
.	4f#	.	.	.
.	1g	.	.	.
.	.	.	[1d	2.a
.	4f	.	.	.
.	4e	.	.	4g
=6	=6	=6	=6	=6
0r	2f#	0r	1d]	2a
.	1g	.	.	2b
.	.	.	1d	1a
.	2f	.	.	.
=7	=7	=7	=7	=7
0r	2e	0G	2.g	2b
.	2d	.	.	1dd
.	.	.	4f	.
.	[1g	.	2e	.
.	.	.	4d	[2cc
.	.	.	4c	.
=8	=8	=8	=8	=8
0r	0g]	1G	1d	4cc]
.	.	.	.	8b
.	.	.	.	8a
.	.	.	.	2b
.	.	[1c	2.e	2.cc
.	.	.	4f	4dd
=9	=9	=9	=9	=9
0r	2.e	1c]	2g	0ee
.	.	.	2a	.
.	4f	.	.	.
.	2g	1c	2e	.
.	2c	.	[2a	.
=10	=10	=10	=10	=10
0D	0d	1B	2a]	0dd
.	.	.	1g	.
.	.	[1A	.	.
.	.	.	4f	.
.	.	.	4e	.
=11	=11	=11	=11	=11
1D	2r	1A]	1f#	1a
.	2d	.	.	.
[1G	2d	[1G	1g	2b
.	4G	.	.	[2dd
.	4A	.	.	.
=12	=12	=12	=12	=12
1G]	4B	1G]	1d	4dd]
.	4c	.	.	4cc
.	4d	.	.	2b
.	4e	.	.	.
1F	4f	1r	1d	1a
.	4e	.	.	.
.	[2d	.	.	.
=13	=13	=13	=13	=13
0E	2d]	0r	0g	0ee
.	4c	.	.	.
.	4B	.	.	.
.	1c#	.	.	.
=14	=14	=14	=14	=14
[0D	1d	1r	2.f	1a
.	.	.	4e	.
.	1A	[1d	4f	2.dd
.	.	.	4g	.
.	.	.	[2a	.
.	.	.	.	4cc
=15	=15	=15	=15	=15
0D]	1r	1d]	2a]	2b
.	.	.	1g	4a
.	.	.	.	4g
.	2r	1d	.	1a
.	2d	.	2f#	.
=16	=16	=16	=16	=16
1r	1d	[0G	[0g	2b
.	.	.	.	2dd
1G	2G	.	.	1dd
.	2d	.	.	.
=17	=17	=17	=17	=17
1G	2d	1G]	1g]	1b
.	2d	.	.	.
2C	2c	1r	2r	2ee
2G	4B	.	2g	[2dd
.	4A	.	.	.
=18	=18	=18	=18	=18
2G	2.B	0r	1g	2dd]
2G	.	.	.	2b
.	4G	.	.	.
2F	4A	.	2c	1cc
.	4B	.	.	.
2E	[2c	.	2g	.
=19	=19	=19	=19	=19
1D	2c]	0r	2f	1dd
.	2B	.	2d	.
1C	2.c	.	2.e	2g
.	.	.	.	2cc
.	8B	.	4f	.
.	8A	.	.	.
=20	=20	=20	=20	=20
0r	2G	1d	2g	2b
.	2F#	.	2.a	2a
.	1G	[1d	.	1b
.	.	.	4g	.
.	.	.	[2g	.
=21	=21	=21	=21	=21
1r	1r	1d]	2g]	2a
.	.	.	2f#	2dd
2r	1B	2G	1g	1dd
2G	.	2d	.	.
=22	=22	=22	=22	=22
1G	2.B	2d	2r	2g
.	.	2d	2g	2gg
.	8c	.	.	.
.	8d	.	.	.
2C	2e	2c	1g	2gg
2G	2d	2B	.	2gg
=23	=23	=23	=23	=23
2A	2r	1A	1c	2ff
1c	4c	.	.	1ee
.	4d	.	.	.
.	4e	[1G	1g	.
.	4f	.	.	.
4B	2g	.	.	4dd
4A	.	.	.	4cc
=24	=24	=24	=24	=24
2B	4G	1G]	2g	2dd
.	4A	.	.	.
2E	4B	.	2g	2b
.	4c	.	.	.
1F	2d	1r	2f	1a
.	[2c	.	2e	.
=25	=25	=25	=25	=25
1G	2c]	0r	1d	1g
.	2B	.	.	.
1C	1c	.	2c	2r
.	.	.	[2cc	[2ee
=26	=26	=26	=26	=26
0r	0r	1g	2cc]	2ee]
.	.	.	2b	2dd
.	.	2g	2b	[1dd
.	.	[2f	4a	.
.	.	.	4g	.
=27	=27	=27	=27	=27
0r	0r	2f]	2a	2dd]
.	.	2f	1a	2cc
.	.	1g	.	2b
.	.	.	[2g	4a
.	.	.	.	4g
=28	=28	=28	=28	=28
1r	1r	0d	2g]	1a
.	.	.	2f#	.
1G	2r	.	2g	1g
.	2d	.	[2b	.
=29	=29	=29	=29	=29
2G	2d	0r	2b]	1dd
1F	1f	.	4a	.
.	.	.	4g	.
.	.	.	1a	2dd
2F	2f	.	.	[2cc
=30	=30	=30	=30	=30
0G	1d	2r	1g	2cc]
.	.	1g	.	4b
.	.	.	.	4a
.	1d	.	2r	4b
.	.	.	.	4cc
.	.	2g	[2d	4dd
.	.	.	.	4ee
=31	=31	=31	=31	=31
1D	0r	1.a	2d]	1ff
.	.	.	2d	.
1r	.	.	2f	2cc
.	.	2g	2e	[2ee
=32	=32	=32	=32	=32
0r	0r	1f	1a	2ee]
.	.	.	.	2.dd
.	.	1e	1g	.
.	.	.	.	8cc
.	.	.	.	8b
.	.	.	.	2cc#
=33	=33	=33	=33	=33
1.G	1.B	0d	2r	0dd
.	.	.	1g	.
2G	2B	.	2g	.
=34	=34	=34	=34	=34
1.A	1.c	0r	2f	0r
.	.	.	2e	.
.	.	.	2f	.
2G	2B	.	[2e	.
=35	=35	=35	=35	=35
1F	1A	0r	4e]	0r
.	.	.	4d	.
.	.	.	1d	.
1E	2G	.	.	.
.	[2g	.	2c#	.
=36	=36	=36	=36	=36
1D	2g]	0r	2d	2r
.	4f	.	1a	1dd
.	4e	.	.	.
1r	2f#	.	.	.
.	2g	.	2b	2dd
=37	=37	=37	=37	=37
2r	1.c	0r	1.cc	1.ee
1A	.	.	.	.
2B	2d	.	4b	2dd
.	.	.	4a	.
=38	=38	=38	=38	=38
2c	2e	0r	2g	1cc
2F	2f	.	1a	.
1G	[1d	.	.	1b
.	.	.	[2g	.
=39	=39	=39	=39	=39
0D	1d]	2r	2g]	2a
.	.	1d	4f	1a
.	.	.	4e	.
.	1r	.	1f#	.
.	.	2d	.	2a
=40	=40	=40	=40	=40
0r	0r	1.e	2g	2cc
.	.	.	1g	2b
.	.	.	.	2cc
.	.	2d	2f	[2b
=41	=41	=41	=41	=41
0r	0r	1c	2e	4b]
.	.	.	.	4a
.	.	.	2e	1a
.	.	1B	1d	.
.	.	.	.	2g#
=42	=42	=42	=42	=42
2r	2r	0A	0c	1a
1F	1f	.	.	.
.	.	.	.	2r
2F	2f	.	.	[2cc
=43	=43	=43	=43	=43
1.G	2e	0r	2r	2cc]
.	2d	.	2g	2b
.	4e	.	2g	2b
.	4d	.	.	.
2F	[2d	.	[2a	2a
=44	=44	=44	=44	=44
1E	4d]	0r	2a]	2b
.	4c	.	.	.
.	1c	.	2g	2cc
1D	.	.	1f	1dd
.	2B	.	.	.
=45	=45	=45	=45	=45
2C	2c	1r	0e	1g
1C	1g	.	.	.
.	.	[1c	.	[1cc
2C	2g	.	.	.
=46	=46	=46	=46	=46
1F	1a	1c]	1A	2cc]
.	.	.	.	2dd
1E	1g	1c	2c	1ee
.	.	.	2G	.
=47	=47	=47	=47	=47
[0D	1.f	1.d	2A	0a
.	.	.	4d	.
.	.	.	4e	.
.	.	.	4f	.
.	.	.	4g	.
.	2e	2c	[2a	.
=48	=48	=48	=48	=48
0D]	0d	1B	2a]	0dd
.	.	.	1g	.
.	.	1A	.	.
.	.	.	2f#	.
=49	=49	=49	=49	=49
0G	0d	0G	0g	0b
==	==	==	==	==
*-	*-	*-	*-	*-
!!!CDT: 1525/^1526/-1594/2/2
!!!OCY: Italia
!!!AGN: Mass (Tenor)
!!!AST: renaissance, vocal
!!!ASW: Popular Song
!!!PWK: Masses, Book 3
!!!RNB: Cadence finals: C,D
!!!YOR: Le Opere Complete, v. 6, p. 97
!!!YOO: Rome, Italy: Fratelli Scalera
!!!END: 1992//
!!!EED: John Miller
!!!YEC: Copyright 2000, John Miller
!!!YEN: United States of America
!!!YEM: Rights to all derivative electronic formats reserved.
!!!YEM: Refer to licensing agreement for further details.
!!!YEM: This file must be accompanied by the licensing agreement.
!!!YEM: A copy of the licensing agreement may be found at http://www.music-cog.ohio-state.edu/HumdrumDatabases/Palestrina/license.txt
!!!EMD: converted to Humdrum by Bret Aarden
